packages/ffe-icons/icons/open/400/sm/wrap_text.svg

<svg xmlns="http://www.w3.org/2000/svg" height="20" viewBox="0 -960 960 960" width="20"><path d="M228.226-510q-15.396 0-25.811-10.289Q192-530.579 192-545.789 192-561 202.415-571.5 212.83-582 228.226-582H672q60.48 0 102.24 41.76T816-438q0 60.48-41.76 102.24T672-294H570l26 26q11 11 11 25.5T596.478-217Q585-206 570.5-206q-14.5 0-25.5-11l-88-88q-5.455-5.1-7.727-11.05Q447-322 447-330q0-8 2.273-13.95Q451.545-349.9 457-355l88-88q11-11 25-11t25.478 11Q606-432 606-417.5T595-392l-26 26h103q29.829 0 50.914-21.121 21.086-21.121 21.086-51T722.914-489Q701.829-510 672-510H228.226ZM228-294q-15.3 0-25.65-10.289-10.35-10.29-10.35-25.5Q192-345 202.35-355.5 212.7-366 228-366h120q15.3 0 25.65 10.289 10.35 10.29 10.35 25.5Q384-315 373.65-304.5 363.3-294 348-294H228Zm.292-432Q213-726 202.5-736.289q-10.5-10.29-10.5-25.5Q192-777 202.344-787.5q10.345-10.5 25.637-10.5h503.727Q747-798 757.5-787.711q10.5 10.29 10.5 25.5Q768-747 757.656-736.5 747.311-726 732.019-726H228.292Z"/></svg>

<svg xmlns="http://www.w3.org/2000/svg" height="20" viewBox="0 -960 960 960" width="20"><path d="M228.23-510q-15.4 0-25.81-10.29Q192-530.58 192-545.79t10.42-25.71q10.41-10.5 25.81-10.5H672q60.48 0 102.24 41.76T816-438q0 60.48-41.76 102.24T672-294H570l26 26q11 11 11 25.5T596.48-217Q585-206 570.5-206T545-217l-88-88q-5.45-5.1-7.73-11.05Q447-322 447-330q0-8 2.27-13.95 2.28-5.95 7.73-11.05l88-88q11-11 25-11t25.48 11Q606-432 606-417.5T595-392l-26 26h103q29.83 0 50.91-21.12 21.09-21.12 21.09-51T722.91-489q-21.08-21-50.91-21H228.23ZM228-294q-15.3 0-25.65-10.29Q192-314.58 192-329.79t10.35-25.71Q212.7-366 228-366h120q15.3 0 25.65 10.29Q384-345.42 384-330.21t-10.35 25.71Q363.3-294 348-294H228Zm.29-432q-15.29 0-25.79-10.29t-10.5-25.5q0-15.21 10.34-25.71 10.35-10.5 25.64-10.5h503.73q15.29 0 25.79 10.29t10.5 25.5q0 15.21-10.34 25.71-10.35 10.5-25.64 10.5H228.29Z"/></svg>
